X:155
T: Tőlem a nap...
M: 2/4
L: 1/8
K: F
ddff | gffc | 
gffd | dfcB | 
gffd | cccB | 
cdBc | cBGG | 

